X: 31874
T: Pay The Reckoning
R: jig
M: 6/8
K: Gmajor
D|:GBe dBG|BAB dBA|G2e dBG|AGA BGE|
G2e dBG|BAB deg|age dBG|A2A BGE:|
|:gag faf|efe def|gfg efg|aga bge|
gag faf|efe deg|age dBG|A2A BGE:|

